src/images/sprite/computericon.svg

<svg width="151" height="150" viewBox="0 0 151 150" fill="none" xmlns="http://www.w3.org/2000/svg">
<mask id="mask0_11163_5716" style="mask-type:luminance" maskUnits="userSpaceOnUse" x="0" y="0" width="151" height="150">
<path d="M0.199219 1.52588e-05H150.199V150H0.199219V1.52588e-05Z" fill="white"/>
</mask>
<g mask="url(#mask0_11163_5716)">
<path d="M42.4733 143.038H100.315C101.112 143.038 101.777 142.382 101.777 141.576V138.146C101.777 135.447 99.568 133.246 96.877 133.246H45.9031C43.2125 133.246 41.0117 135.447 41.0117 138.146V141.576C41.0117 142.382 41.6677 143.038 42.4733 143.038Z" stroke="currentColor" stroke-width="3.5" stroke-miterlimit="10" stroke-linecap="round" stroke-linejoin="round"/>
<path d="M51.9336 133.246L55.8453 120.166M86.946 120.166L90.8492 133.246" stroke="currentColor" stroke-width="3.5" stroke-miterlimit="10" stroke-linecap="round" stroke-linejoin="round"/>
<path d="M18.3555 109.054H113.02" stroke="currentColor" stroke-width="3.5" stroke-miterlimit="10" stroke-linecap="round" stroke-linejoin="round"/>
<path d="M2.39453 81.6397C2.39453 83.7658 4.13008 85.5095 6.25615 85.5095H93.3637C95.4897 85.5095 97.2253 83.7658 97.2253 81.6397V10.8239C97.2253 8.69781 95.4897 6.96226 93.3637 6.96226H6.25615C4.13008 6.96226 2.39453 8.69781 2.39453 10.8239V81.6397Z" stroke="currentColor" stroke-width="3.5" stroke-miterlimit="10" stroke-linecap="round" stroke-linejoin="round"/>
<path d="M66.3232 120.166H22.3583C20.1575 120.166 18.3555 118.364 18.3555 116.163V85.5096M113.02 120.166H76.4301M97.225 46.5931H120.428C122.629 46.5931 124.431 48.3951 124.431 50.5959V90.6005" stroke="currentColor" stroke-width="3.5" stroke-miterlimit="10" stroke-linecap="round" stroke-linejoin="round"/>
<path d="M54.8884 27.4585H97.2256M2.39453 27.4585H44.7399" stroke="currentColor" stroke-width="3.5" stroke-miterlimit="10" stroke-linecap="round" stroke-linejoin="round"/>
<path d="M85.6055 17.2021V17.2188" stroke="currentColor" stroke-width="3.5" stroke-miterlimit="10" stroke-linecap="round" stroke-linejoin="round"/>
<path d="M74.7461 17.2021V17.2188" stroke="currentColor" stroke-width="3.5" stroke-miterlimit="10" stroke-linecap="round" stroke-linejoin="round"/>
<path d="M63.8828 17.2021V17.2188" stroke="currentColor" stroke-width="3.5" stroke-miterlimit="10" stroke-linecap="round" stroke-linejoin="round"/>
<path d="M14.0117 17.2021L36.5009 17.2188" stroke="currentColor" stroke-width="3.5" stroke-miterlimit="10" stroke-linecap="round" stroke-linejoin="round"/>
<path d="M84.4266 38.7781H51.8889C51.075 38.7781 50.4023 39.4426 50.4023 40.2646V50.0729C50.4023 50.8947 51.075 51.5674 51.8889 51.5674H84.4266C85.2404 51.5674 85.9131 50.8947 85.9131 50.0729V40.2646C85.9131 39.4426 85.2404 38.7781 84.4266 38.7781Z" stroke="currentColor" stroke-width="3.5" stroke-miterlimit="10" stroke-linecap="round" stroke-linejoin="round"/>
<path d="M85.9128 63.7842H50.4023" stroke="currentColor" stroke-width="3.5" stroke-miterlimit="10" stroke-linecap="round" stroke-linejoin="round"/>
<path d="M67.7341 74.1902H85.9128M50.4023 74.1902H55.8252" stroke="currentColor" stroke-width="3.5" stroke-miterlimit="10" stroke-linecap="round" stroke-linejoin="round"/>
<path d="M130.512 134.251H130.438" stroke="currentColor" stroke-width="3.5" stroke-miterlimit="10" stroke-linecap="round" stroke-linejoin="round"/>
<path d="M117.064 143.038H143.946C146.172 143.038 147.999 141.219 147.999 138.985V94.645C147.999 92.4193 146.172 90.6006 143.946 90.6006H117.064C114.838 90.6006 113.02 92.4193 113.02 94.645V138.985C113.02 141.219 114.838 143.038 117.064 143.038Z" stroke="currentColor" stroke-width="3.5" stroke-miterlimit="10" stroke-linecap="round" stroke-linejoin="round"/>
<path d="M15.2021 38.7782H37.5998C38.4219 38.7782 39.0945 39.4426 39.0945 40.2647V72.6955C39.0945 73.5175 38.4219 74.1902 37.5998 74.1902H15.2021C14.38 74.1902 13.707 73.5175 13.707 72.6955V40.2647C13.707 39.4426 14.38 38.7782 15.2021 38.7782Z" stroke="currentColor" stroke-width="3.5" stroke-miterlimit="10" stroke-linecap="round" stroke-linejoin="round"/>
</g>
</svg>

<svg width="151" height="150" viewBox="0 0 151 150" fill="none"><g clip-path="url(#a)"><mask id="b" width="151" height="150" x="0" y="0" maskUnits="userSpaceOnUse" style="mask-type:luminance"><path d="M.2 0h149.999v150h-150V0Z"/></mask><g stroke="currentColor" stroke-linecap="round" stroke-linejoin="round" stroke-miterlimit="10" stroke-width="3.5" mask="url(#b)"><path d="M42.473 143.038h57.842a1.47 1.47 0 0 0 1.462-1.462v-3.43c0-2.699-2.209-4.9-4.9-4.9H45.903c-2.69 0-4.891 2.201-4.891 4.9v3.43c0 .806.656 1.462 1.461 1.462ZM51.934 133.246l3.911-13.08m31.101 0 3.903 13.08M18.355 109.054h94.665M2.395 81.64c0 2.126 1.735 3.87 3.861 3.87h87.108c2.126 0 3.861-1.744 3.861-3.87V10.824a3.87 3.87 0 0 0-3.861-3.862H6.256a3.87 3.87 0 0 0-3.861 3.862V81.64Z"/><path d="M66.323 120.166H22.358a4.016 4.016 0 0 1-4.003-4.003V85.51m94.665 34.656H76.43m20.795-73.573h23.203a4.016 4.016 0 0 1 4.003 4.003V90.6M54.888 27.459h42.338m-94.831 0H44.74M85.606 17.202v.017M74.746 17.202v.017M63.883 17.202v.017M14.012 17.202l22.489.017M84.427 38.778H51.889a1.49 1.49 0 0 0-1.487 1.487v9.808c0 .822.673 1.494 1.487 1.494h32.538c.813 0 1.486-.672 1.486-1.494v-9.808a1.49 1.49 0 0 0-1.486-1.487ZM85.913 63.784h-35.51M67.734 74.19h18.179m-35.51 0h5.422M130.512 134.251h-.074M117.064 143.038h26.882a4.064 4.064 0 0 0 4.053-4.053v-44.34c0-2.226-1.827-4.044-4.053-4.044h-26.882a4.054 4.054 0 0 0-4.044 4.044v44.34a4.056 4.056 0 0 0 4.044 4.053ZM15.202 38.778H37.6c.822 0 1.494.665 1.494 1.487v32.43A1.5 1.5 0 0 1 37.6 74.19H15.202a1.5 1.5 0 0 1-1.495-1.495v-32.43c0-.822.673-1.487 1.495-1.487Z"/></g></g><defs><clipPath id="a"><path d="M.2 0h150v150H.2z"/></clipPath></defs></svg>
